X: 15
T:Soldier's Joy
C:Traditional
M:4/4
L:1/8
R:Reel
K:D
Q:125
F2|"D"A2 F2 D2 F2|A2 d2d2F2|"D"A2F2D2F2|G2E2E2F2 | 
w: I am my mo-ther's pride and joy, I am my mo-ther's pride and joy, I 
"D"A2F2D2F2|"D"A2 d2d2e2 |"D"ffdd  e2c2|d2 d2 d4|!
w: am my mo-ther's pride and joy, I play a lit-tle tune called Sol-dier's joy.
W: 2. Chicken in the bread tray scratchin' out dough, Granny will your dog bite? No, child, no.
W: Ladies to the center and gents get chair, hold her don't you let her rest
W:
W: 3. Grasshopper sitin on a sweet potato vine. Grasshopper sitin on a sweet potato vine
W: Grasshopper sitin on a sweet potato vine, along comes a chicken and says your mine!
W:
W: 4. I'm a gonna get a drink, don't you want to go? I'm a gonna get a drink don't  you want to go
W: I'm a gonna get a drink, don't you want to go? Hold on Soldier's joy.
W: 
W: 5. Twenty-five cents for the morphine, Fifteen cents for the beer
W: Twenty-five cents for the morphine Gonna take me away from here

